svg/fluentui-system-icons/ic_fluent_flag_16_regular.svg

<svg width="16" height="16" viewBox="0 0 16 16" fill="none" xmlns="http://www.w3.org/2000/svg">
<path d="M4 9V3H12.0284L10.0931 5.70938C9.96896 5.88323 9.96896 6.11677 10.0931 6.29062L12.0284 9H4ZM4 10H13C13.4067 10 13.6432 9.54032 13.4069 9.20938L11.1145 6L13.4069 2.79062C13.6432 2.45968 13.4067 2 13 2H3.5C3.22386 2 3 2.22386 3 2.5V13.5C3 13.7761 3.22386 14 3.5 14C3.77614 14 4 13.7761 4 13.5V10Z" fill="#212121"/>
</svg>

<svg xmlns="http://www.w3.org/2000/svg" width="16" height="16"><path d="M4 9V3h8.028l-1.935 2.71a.5.5 0 0 0 0 .58L12.028 9H4Zm0 1h9a.5.5 0 0 0 .407-.79L11.114 6l2.293-3.21A.5.5 0 0 0 13 2H3.5a.5.5 0 0 0-.5.5v11a.5.5 0 0 0 1 0V10Z"/></svg>
